packages/shootizy-client/src/assets/icons/image.svg

<svg height="32" viewBox="0 0 32 32" width="32" xmlns="http://www.w3.org/2000/svg"><path d="m29.996 4c.001.001.003.002.004.004v23.993c-.001.001-.002.003-.004.004h-27.993c-.001-.001-.003-.002-.004-.004v-23.993c.001-.001.002-.003.004-.004zm.004-2h-28c-1.1 0-2 .9-2 2v24c0 1.1.9 2 2 2h28c1.1 0 2-.9 2-2v-24c0-1.1-.9-2-2-2z"/><path d="m26 9c0 1.657-1.343 3-3 3s-3-1.343-3-3 1.343-3 3-3 3 1.343 3 3z"/><path d="m28 26h-24v-4l7-12 8 10h2l7-6z"/></svg>

<svg height="32" width="32" xmlns="http://www.w3.org/2000/svg"><path d="M29.996 4l.004.004v23.993l-.004.004H2.003l-.004-.004V4.004L2.003 4zM30 2H2C.9 2 0 2.9 0 4v24c0 1.1.9 2 2 2h28c1.1 0 2-.9 2-2V4c0-1.1-.9-2-2-2z"/><path d="M26 9a3 3 0 1 1-6 0 3 3 0 0 1 6 0zM28 26H4v-4l7-12 8 10h2l7-6z"/></svg>
